rospo-icon-theme-classic-common/22x22/apps/ocsstore.svg

<svg height="22" viewBox="0 0 22 22" width="22" xmlns="http://www.w3.org/2000/svg"><path d="m11 1a10 10 0 0 0 -10 10 10 10 0 0 0 10 10 10 10 0 0 0 10-10 10 10 0 0 0 -10-10z" fill="#144379"/><path d="m11 4.5c-1.682541.0028315-3.3077697.611599-4.578125 1.7148438l1.5664062 1.5664062c.2975221-.1751843.6400932-.28125 1.0117188-.28125h4c .371626 0 .714197.1060657 1.011719.28125l1.568359-1.5683594c-1.271144-1.1029779-2.897115-1.7110705-4.580078-1.7128906zm-5.2871094 2.4199219c-1.1029779 1.2711437-1.7110705 2.8971151-1.7128906 4.5800781.00283 1.682541.611599 3.30777 1.7148438 4.578125l1.2851562-1.285156v-1.292969-4c0-.371626.1060657-.7141967.28125-1.0117188zm10.5722654.0019531-1.566406 1.5664062c.175184.2975221.28125.6400928.28125 1.0117188v4c0 .371626-.106066.714197-.28125 1.011719l1.568359 1.568359c1.102978-1.271144 1.711071-2.897115 1.712891-4.580078-.002832-1.682541-.611599-3.3077697-1.714844-4.578125zm-2.273437 8.296875c-.297522.175185-.640093.28125-1.011719.28125h-4l-1.9941406 1.736328c1.1671344.815035 2.5589126 1.261284 3.9941406 1.263672 1.682963-.0018 3.308934-.609913 4.580078-1.712891zm-7.011719.988281-.578125.578125c.184938.16061.3790631.307958.578125.447266z" opacity=".2"/><path d="m1.01075 11.209a10 10 0 0 0 -.01075.291 10 10 0 0 0 10 10 10 10 0 0 0 10-10 10 10 0 0 0 -.0105-.209 10 10 0 0 1 -9.9895 9.709 10 10 0 0 1 -9.989-9.791z" opacity=".2"/><path d="m11 1a10 10 0 0 0 -10 10 10 10 0 0 0  .01075.209 10 10 0 0 1 9.989-9.709 10 10 0 0 1 9.9895 9.791 10 10 0 0 0  .0105-.291 10 10 0 0 0 -10-10z" fill="#fff" opacity=".1"/><path d="m11 4c-1.682541.0028315-3.3077697.611599-4.578125 1.7148438l1.5664062 1.5664062c.297522-.1751843.6400932-.28125 1.0117188-.28125h4c .371626 0 .714197.1060657 1.011719.28125l1.568359-1.5683594c-1.271144-1.1029779-2.897115-1.7110705-4.580078-1.7128906z" fill="#00cea5"/><path d="m5.7128906 6.4199219c-1.1029779 1.2711437-1.7110705 2.8971151-1.7128906 4.5800781.00283 1.682541.611599 3.30777 1.7148438 4.578125l1.2851562-1.285156v-1.292969-4c0-.3716256.1060657-.7141967.28125-1.0117188z" fill="#d152ac"/><path d="m16.285156 6.421875-1.566406 1.5664062c.175184.297522.28125.6400932.28125 1.0117188v4c0 .371626-.106066.714197-.28125 1.011719l1.568359 1.568359c1.102978-1.271144 1.711071-2.897115 1.712891-4.580078-.002832-1.682541-.611599-3.3077697-1.714844-4.578125z" fill="#d75950"/><path d="m14.011719 14.71875c-.297522.175185-.640093.28125-1.011719.28125h-4l-1.9941406 1.736328c1.1671344.815035 2.5589126 1.261284 3.9941406 1.263672 1.682963-.0018 3.308934-.609913 4.580078-1.712891zm-7.011719.988281-.578125.578125c.184938.16061.3790631.307958.578125.447266z" fill="#e88a19"/><path d="m11 4c-1.682541.0028315-3.3077697.611599-4.578125 1.7148438l.2792969.2792968c1.225711-.9595283 2.7354341-1.4915096 4.2988281-1.4941406 1.563786.00169 3.074345.5329606 4.300781 1.4921875l.279297-.2792969c-1.271144-1.1029779-2.897115-1.7110705-4.580078-1.7128906zm-5.2871094 2.4199219c-1.1029779 1.2711437-1.7110705 2.8971151-1.7128906 4.5800781.0001411.08387.00858.166456.011719.25.058893-1.592975.6531714-3.122294 1.7011718-4.3300781l1.4179686 1.4179687c.0437275-.1198122.0864527-.2410212.1503906-.3496094zm10.5722654.0019531-1.566406 1.5664062c.06394.1085882.106663.2297972.150391.3496094l1.416015-1.4160156c1.048254 1.207035 1.643303 2.735581 1.703125 4.328125.00309-.083567.011628-.166113.011719-.25-.002832-1.682541-.611599-3.3077697-1.714844-4.578125zm-1.285156 6.578125c0 .371626-.106066.714197-.28125 1.011719l.150391.15039c.076082-.208462.130859-.426117.130859-.662109zm-.988281 1.71875c-.297522.175185-.640093.28125-1.011719.28125h-4l-1.9941406 1.736328c.1092221.07627.2287886.133374.3417968.203125l1.6523438-1.439453h4c .371626 0 .714197-.106065 1.011719-.28125l1.289062 1.289062c.09347-.0731.189283-.142597.279297-.220703zm-7.011719.988281-.578125.578125c.09015.07829.1872267.146157.28125.21875l.296875-.296875z" fill="#fff" opacity=".2"/></svg>

<svg xmlns="http://www.w3.org/2000/svg" width="22" height="22" version="1.1" viewBox="0 0 22 22">
 <path style="fill:#144379" d="M 11,1 A 10,10 0 0 0 1,11 10,10 0 0 0 11,21 10,10 0 0 0 21,11 10,10 0 0 0 11,1 Z"/>
 <path style="opacity:0.2" d="M 11,4.5 C 9.317459,4.5028315 7.6922303,5.111599 6.421875,6.2148438 L 7.9882812,7.78125 C 8.2858033,7.6060657 8.6283744,7.5 9,7.5 l 4,0 c 0.371626,0 0.714197,0.1060657 1.011719,0.28125 L 15.580078,6.2128906 C 14.308934,5.1099127 12.682963,4.5018201 11,4.5 Z M 5.7128906,6.9199219 C 4.6099127,8.1910656 4.0018201,9.817037 4,11.5 c 0.00283,1.682541 0.611599,3.30777 1.7148438,4.578125 L 7,14.792969 7,13.5 7,9.5 C 7,9.128374 7.1060657,8.7858033 7.28125,8.4882812 L 5.7128906,6.9199219 Z M 16.285156,6.921875 14.71875,8.4882812 C 14.893934,8.7858033 15,9.128374 15,9.5 l 0,4 c 0,0.371626 -0.106066,0.714197 -0.28125,1.011719 l 1.568359,1.568359 C 17.390087,14.808934 17.99818,13.182963 18,11.5 17.997168,9.817459 17.388401,8.1922303 16.285156,6.921875 Z M 14.011719,15.21875 C 13.714197,15.393935 13.371626,15.5 13,15.5 l -4,0 -1.9941406,1.736328 C 8.1729938,18.051363 9.564772,18.497612 11,18.5 c 1.682963,-0.0018 3.308934,-0.609913 4.580078,-1.712891 L 14.011719,15.21875 Z M 7,16.207031 6.421875,16.785156 C 6.606813,16.945766 6.8009381,17.093114 7,17.232422 l 0,-1.025391 z"/>
 <path style="opacity:0.2" d="M 1.01075,11.209 A 10,10 0 0 0 1,11.5 10,10 0 0 0 11,21.5 10,10 0 0 0 21,11.5 10,10 0 0 0 20.9895,11.291 10,10 0 0 1 11,21 10,10 0 0 1 1.011,11.209 Z"/>
 <path style="opacity:0.1;fill:#ffffff" d="m 11,1 a 10,10 0 0 0 -10,10 10,10 0 0 0 0.01075,0.209 10,10 0 0 1 9.989,-9.709 10,10 0 0 1 9.9895,9.791 10,10 0 0 0 0.0105,-0.291 10,10 0 0 0 -10,-10 z"/>
 <path style="fill:#00cea5" d="M 11,4 C 9.317459,4.0028315 7.6922303,4.611599 6.421875,5.7148438 L 7.9882812,7.28125 C 8.2858032,7.1060657 8.6283744,7 9,7 l 4,0 c 0.371626,0 0.714197,0.1060657 1.011719,0.28125 L 15.580078,5.7128906 C 14.308934,4.6099127 12.682963,4.0018201 11,4 Z"/>
 <path style="fill:#d152ac" d="M 5.7128906,6.4199219 C 4.6099127,7.6910656 4.0018201,9.317037 4,11 c 0.00283,1.682541 0.611599,3.30777 1.7148438,4.578125 L 7,14.292969 7,13 7,9 C 7,8.6283744 7.1060657,8.2858033 7.28125,7.9882812 L 5.7128906,6.4199219 Z"/>
 <path style="fill:#d75950" d="M 16.285156,6.421875 14.71875,7.9882812 C 14.893934,8.2858032 15,8.6283744 15,9 l 0,4 c 0,0.371626 -0.106066,0.714197 -0.28125,1.011719 l 1.568359,1.568359 C 17.390087,14.308934 17.99818,12.682963 18,11 17.997168,9.317459 17.388401,7.6922303 16.285156,6.421875 Z"/>
 <path style="fill:#e88a19" d="M 14.011719,14.71875 C 13.714197,14.893935 13.371626,15 13,15 L 9,15 7.0058594,16.736328 C 8.1729938,17.551363 9.564772,17.997612 11,18 c 1.682963,-0.0018 3.308934,-0.609913 4.580078,-1.712891 L 14.011719,14.71875 Z M 7,15.707031 6.421875,16.285156 C 6.606813,16.445766 6.8009381,16.593114 7,16.732422 l 0,-1.025391 z"/>
 <path style="opacity:0.2;fill:#ffffff" d="M 11,4 C 9.317459,4.0028315 7.6922303,4.611599 6.421875,5.7148438 L 6.7011719,5.9941406 C 7.9268829,5.0346123 9.436606,4.502631 11,4.5 c 1.563786,0.00169 3.074345,0.5329606 4.300781,1.4921875 L 15.580078,5.7128906 C 14.308934,4.6099127 12.682963,4.0018201 11,4 Z M 5.7128906,6.4199219 C 4.6099127,7.6910656 4.0018201,9.317037 4,11 4.0001411,11.08387 4.00858,11.166456 4.011719,11.25 4.070612,9.657025 4.6648904,8.127706 5.7128908,6.9199219 L 7.1308594,8.3378906 C 7.1745869,8.2180784 7.2173121,8.0968694 7.28125,7.9882812 L 5.7128906,6.4199219 Z M 16.285156,6.421875 14.71875,7.9882812 c 0.06394,0.1085882 0.106663,0.2297972 0.150391,0.3496094 L 16.285156,6.921875 C 17.33341,8.12891 17.928459,9.657456 17.988281,11.25 17.991371,11.166433 17.999909,11.083887 18,11 17.997168,9.317459 17.388401,7.6922303 16.285156,6.421875 Z M 15,13 c 0,0.371626 -0.106066,0.714197 -0.28125,1.011719 l 0.150391,0.15039 C 14.945223,13.953647 15,13.735992 15,13.5 L 15,13 Z m -0.988281,1.71875 C 13.714197,14.893935 13.371626,15 13,15 l -4,0 -1.9941406,1.736328 c 0.1092221,0.07627 0.2287886,0.133374 0.3417968,0.203125 L 9,15.5 l 4,0 c 0.371626,0 0.714197,-0.106065 1.011719,-0.28125 l 1.289062,1.289062 c 0.09347,-0.0731 0.189283,-0.142597 0.279297,-0.220703 L 14.011719,14.71875 Z M 7,15.707031 6.421875,16.285156 c 0.09015,0.07829 0.1872267,0.146157 0.28125,0.21875 L 7,16.207031 l 0,-0.5 z"/>
</svg>
